icon-themes/sifr_svg/cmd/sc_text_marquee.svg

<svg viewBox="0 0 16 16" xmlns="http://www.w3.org/2000/svg"><path d="m15 2c.02662-.55336-.446-1-1-1h-12c-.554 0-1 .446-1 1v2h2v-1h3v7h4v-7h3v1h2zm0 10.5625002-.28125-.28125-2-2c-.18818-.1812502-.45346-.2812502-.71875-.2812502h-1v1c-.00004.26531.09314.53057.28125.71875l.28125.28125h-7.125l.28125-.28125c.18125-.18818.28125-.45344.28125-.71875v-1h-1c-.26529 0-.53057.1-.71875.2812502l-2 2-.28125.2812498v.875l.28125.28125 2 2c.18817.18125.45344.28125.71875.28125h1v-1c0-.2653-.1-.53058-.28125-.71875l-.28125-.28125h7.125l-.28125.28125c-.18125.18817-.28125.45345-.28125.71875v1h1c.26531-.00003.53058-.09311.71875-.28125l2-2 .28125-.28125z" fill="#555753"/></svg>

<svg xmlns="http://www.w3.org/2000/svg" viewBox="0 0 16 16">
  <path
     style="fill:#555753"
     d="m 15,2 c 0.02662,-0.55336 -0.446,-1 -1,-1 H 2 c -0.554,0 -1,0.446 -1,1 v 2 h 2 v -1 h 3 v 7 h 4 v -7 h 3 v 1 h 2 z m 0,10.5625002 -0.28125,-0.28125 -2,-2 C 12.53057,10.1 12.26529,10 12,10 H 11 V 11 c -4e-5,0.26531 0.09314,0.53057 0.28125,0.71875 L 11.5625,12 H 4.4375 L 4.71875,11.71875 C 4.9,11.53057 5,11.26531 5,11 V 10 H 4 c -0.26529,0 -0.53057,0.1 -0.71875,0.2812502 l -2,2 L 1,12.5625 v 0.875 l 0.28125,0.28125 2,2 C 3.46942,15.9 3.73469,16 4,16 H 5 V 15 C 5,14.7347 4.9,14.46942 4.71875,14.28125 L 4.4375,14 h 7.125 l -0.28125,0.28125 C 11.1,14.46942 11,14.7347 11,15 v 1 h 1 c 0.26531,-3e-5 0.53058,-0.09311 0.71875,-0.28125 l 2,-2 L 15,13.4375 Z"
     />
</svg>
